img/redes/facebook-white.svg

<svg width="24" height="24" viewBox="0 0 24 24" fill="none" xmlns="http://www.w3.org/2000/svg">
<path d="M24 12.0733C24 5.44625 18.627 0.0732422 12 0.0732422C5.373 0.0732422 0 5.44625 0 12.0733C0 18.0632 4.388 23.0273 10.125 23.9273V15.5423H7.078V12.0722H10.125V9.43028C10.125 6.42324 11.917 4.76124 14.658 4.76124C15.97 4.76124 17.344 4.99625 17.344 4.99625V7.94925H15.83C14.339 7.94925 13.874 8.87423 13.874 9.82328V12.0733H17.202L16.67 15.5432H13.874V23.9282C19.612 23.0273 24 18.0623 24 12.0733Z" fill="white"/>
</svg>

<svg width="24" height="24" fill="none" xmlns="http://www.w3.org/2000/svg"><path d="M24 12.073c0-6.627-5.373-12-12-12s-12 5.373-12 12c0 5.99 4.388 10.954 10.125 11.854v-8.385H7.078v-3.47h3.047V9.43c0-3.007 1.792-4.669 4.533-4.669 1.312 0 2.686.235 2.686.235V7.95H15.83c-1.491 0-1.956.925-1.956 1.874v2.25h3.328l-.532 3.47h-2.796v8.385C19.612 23.028 24 18.062 24 12.073Z" fill="#fff"/></svg>
